X:49
T:Hogmanay or Adieu to the Auld Year
T:Soraidh leis an t-seana bhliadhna
R:Strathspey
S:Simon Fraser Collection
N:No.6
N:transposed from A
O:Scottish
M:C
L:1/8
K:C
G|E>Gc>G E/E/E E2|E>G c<e d>D D<G|E>Gc>G E/E/E E2|g/f/e/d/ c>G E2 E:|
g|a/g/f/e/ c'<e g<e g>c'|g>e c'>b d'>d d<c'|a/g/f/e/ c'>e g>e a<c'|b<d' c'>a
e2 e<c'|
a/g/f/e/ c'<e g<e g>c'|g>e c'>b d'>d de/f/|g<ede B<d|A>c G<c E2 E||
